X: 1590
T: Jerry Daly's Hornpipe
R:hornpipe
N:"1st Setting" "Collected by F. O'Neill"
B:O'Neill's 1590
Z:Transcribed by Michael Hogan
M:C|
L:1/8
K:A
(ed) | cABG A2 (BA) | GEDE G2 (cd) | (3efg (fa) gedc | B2 GG G2 (ed) |
cABG A2 (BA) | GEDE G2 (cd) | (3efg (fa) gedB | A2 AA A2 :|
|: (3efg | agab agef | gedB G2 (ef) | gfga gfef | gedB GABG |
EAAG AcBA | GFEF GABd | (3efg (fa) gedB | A2 AA A2 :|


